libs/ui/packages/crypto-icons/src/svg/ARY.svg

<svg width="24" height="24" viewBox="0 0 24 24" fill="none">
<path d="M17.9377 15.8323C18.07 15.7868 18.1835 15.6989 18.2608 15.5823C18.3381 15.4657 18.3748 15.3269 18.3652 15.1873V16.0123C18.3662 16.1527 18.3238 16.2899 18.244 16.4053C18.1641 16.5207 18.0506 16.6087 17.919 16.6573L12.228 18.7071C12.0844 18.7642 11.9245 18.7642 11.781 18.7071L6.08995 16.6581C5.95765 16.6104 5.84354 16.5227 5.76353 16.407C5.68353 16.2914 5.64164 16.1537 5.6437 16.0131V15.1881C5.6437 15.4723 5.81995 15.7378 6.08995 15.8331L11.7997 17.8821C11.943 17.939 12.1026 17.939 12.2459 17.8821L17.9377 15.8323ZM17.9377 14.3713C18.0687 14.3238 18.1809 14.2354 18.2578 14.1193C18.3348 14.0032 18.3724 13.8654 18.3652 13.7263V14.5513C18.3662 14.6917 18.3238 14.8289 18.244 14.9443C18.1641 15.0597 18.0506 15.1477 17.919 15.1963L12.228 17.2461C12.0844 17.3032 11.9245 17.3032 11.781 17.2461L6.08995 15.1971C5.95765 15.1494 5.84354 15.0617 5.76353 14.946C5.68353 14.8304 5.64164 14.6927 5.6437 14.5521V13.7173C5.6437 14.0113 5.81995 14.2671 6.08995 14.3713L11.7997 16.4211C11.943 16.478 12.1026 16.478 12.2459 16.4211L17.9377 14.3713ZM17.9377 12.9013C18.0681 12.8546 18.1805 12.768 18.259 12.6539C18.3375 12.5397 18.378 12.4038 18.3749 12.2653V13.0903C18.3759 13.2308 18.3334 13.3681 18.2534 13.4835C18.1734 13.5989 18.0598 13.6869 17.9279 13.7353L12.237 15.7851C12.0936 15.842 11.934 15.842 11.7907 15.7851L6.08995 13.7263C5.95765 13.6787 5.84354 13.5909 5.76353 13.4753C5.68353 13.3596 5.64164 13.2219 5.6437 13.0813V12.2563C5.6437 12.5406 5.81995 12.8061 6.08995 12.9013L11.7997 14.9503C11.943 15.0072 12.1026 15.0072 12.2459 14.9503L17.9377 12.9013ZM5.62495 7.99631C5.62289 7.85572 5.66478 7.71798 5.74478 7.60235C5.82479 7.48671 5.9389 7.39895 6.0712 7.35131L11.772 5.29256C11.9153 5.23565 12.0749 5.23565 12.2182 5.29256L17.919 7.35131C18.0512 7.39895 18.1654 7.48671 18.2454 7.60235C18.3254 7.71798 18.3673 7.85572 18.3652 7.99631V11.6203C18.3662 11.7607 18.3238 11.8979 18.244 12.0133C18.1641 12.1287 18.0506 12.2167 17.919 12.2653L12.2092 14.3143C12.0659 14.3712 11.9063 14.3712 11.763 14.3143L6.0712 12.2653C5.9389 12.2177 5.82479 12.1299 5.74478 12.0143C5.66478 11.8986 5.62289 11.7609 5.62495 11.6203V7.99631Z" fill="#343434"/>
</svg>

<svg width="24" height="24" viewBox="0 0 24 24" fill="none"><path fill="#343434" d="M17.938 15.832a.636.636 0 0 0 .427-.645v.825a.68.68 0 0 1-.446.645l-5.691 2.05a.6.6 0 0 1-.447 0L6.09 16.658a.675.675 0 0 1-.446-.645v-.825c0 .284.176.55.446.645l5.71 2.05a.6.6 0 0 0 .446 0zm0-1.46a.65.65 0 0 0 .427-.646v.825a.68.68 0 0 1-.446.645l-5.691 2.05a.6.6 0 0 1-.447 0L6.09 15.197a.675.675 0 0 1-.446-.645v-.835c0 .294.176.55.446.654l5.71 2.05a.6.6 0 0 0 .446 0zm0-1.47a.66.66 0 0 0 .437-.637v.825a.68.68 0 0 1-.447.645l-5.691 2.05a.6.6 0 0 1-.446 0L6.09 13.726a.675.675 0 0 1-.446-.645v-.825c0 .285.176.55.446.645l5.71 2.05a.6.6 0 0 0 .446 0zM5.625 7.995a.675.675 0 0 1 .446-.645l5.701-2.058a.6.6 0 0 1 .446 0L17.92 7.35a.675.675 0 0 1 .446.645v3.624a.68.68 0 0 1-.446.645l-5.71 2.05a.6.6 0 0 1-.446 0l-5.692-2.05a.675.675 0 0 1-.446-.645z"/></svg>
